frontend/src/assets/figma/logo-mark.svg

<svg preserveAspectRatio="none" width="100%" height="100%" overflow="visible" style="display: block;" viewBox="0 0 40.9613 20.199" fill="none" xmlns="http://www.w3.org/2000/svg">
<g id="cover band">
<path id="Vector" d="M31.4102 20.199C30.3018 20.199 29.3574 19.8088 28.5771 19.0285C27.7967 18.2481 27.4065 17.3037 27.4065 16.1953C27.4065 15.0919 27.7967 14.15 28.5771 13.3697C29.3624 12.5843 30.3068 12.1917 31.4102 12.1917C32.4441 12.1917 33.3462 12.5396 34.1166 13.2355V9.24671H35.4214V20.199H34.1166V19.1552C33.3462 19.8511 32.4441 20.199 31.4102 20.199ZM31.4102 18.9017C31.778 18.9017 32.126 18.8321 32.454 18.693C32.7821 18.5488 33.0679 18.355 33.3114 18.1114C33.5599 17.8629 33.7563 17.5746 33.9004 17.2466C34.0445 16.9185 34.1166 16.5681 34.1166 16.1953C34.1166 15.8275 34.0445 15.4796 33.9004 15.1516C33.7563 14.8235 33.5599 14.5377 33.3114 14.2942C33.0679 14.0456 32.7821 13.8518 32.454 13.7126C32.126 13.5685 31.778 13.4964 31.4102 13.4964C31.0374 13.4964 30.687 13.5685 30.359 13.7126C30.0359 13.8518 29.7501 14.0456 29.5016 14.2942C29.258 14.5377 29.0642 14.8235 28.92 15.1516C28.7809 15.4796 28.7113 15.8275 28.7113 16.1953C28.7113 16.5681 28.7809 16.9185 28.92 17.2466C29.0642 17.5746 29.258 17.8629 29.5016 18.1114C29.7501 18.355 30.0359 18.5488 30.359 18.693C30.687 18.8321 31.0374 18.9017 31.4102 18.9017Z" fill="var(--fill-0, white)"/>
<path id="Vector_2" d="M20.1088 20.1979V12.1906H21.4135V12.7647C21.9404 12.382 22.5344 12.1906 23.1954 12.1906C23.603 12.1906 23.9882 12.2676 24.3511 12.4217C24.7139 12.5758 25.032 12.787 25.3054 13.0554C25.5837 13.3238 25.8074 13.637 25.9764 13.9948C26.1454 14.3477 26.2398 14.7255 26.2597 15.1281L26.2523 20.1979H24.9475V15.1281C24.9326 14.9044 24.8754 14.6932 24.776 14.4944C24.6766 14.2956 24.5474 14.1216 24.3883 13.9725C24.2343 13.8234 24.0528 13.7066 23.8441 13.6221C23.6403 13.5376 23.4241 13.4953 23.1954 13.4953C22.9618 13.4953 22.7406 13.5401 22.5319 13.6295C22.3281 13.714 22.1467 13.8308 21.9876 13.9799C21.8286 14.1241 21.6993 14.2956 21.5999 14.4944C21.5055 14.6932 21.4508 14.9044 21.4359 15.1281H21.4135V20.1979H20.1088Z" fill="var(--fill-0, white)"/>
<path id="Vector_3" d="M13.6815 20.1979C12.573 20.1979 11.6287 19.8077 10.8483 19.0274C10.0679 18.247 9.67777 17.3026 9.67777 16.1942C9.67777 15.0908 10.0679 14.1489 10.8483 13.3686C11.6336 12.5833 12.578 12.1906 13.6815 12.1906C14.7153 12.1906 15.6174 12.5385 16.3879 13.2344V12.1906H17.6926V20.1979H16.3879V19.1541C15.6174 19.85 14.7153 20.1979 13.6815 20.1979ZM13.6815 18.9006C14.0493 18.9006 14.3972 18.831 14.7252 18.6919C15.0533 18.5477 15.3391 18.3539 15.5826 18.1103C15.8312 17.8618 16.0275 17.5735 16.1716 17.2455C16.3158 16.9174 16.3879 16.567 16.3879 16.1942C16.3879 15.8264 16.3158 15.4785 16.1716 15.1505C16.0275 14.8224 15.8312 14.5366 15.5826 14.2931C15.3391 14.0446 15.0533 13.8507 14.7252 13.7115C14.3972 13.5674 14.0493 13.4953 13.6815 13.4953C13.3087 13.4953 12.9583 13.5674 12.6302 13.7115C12.3071 13.8507 12.0213 14.0446 11.7728 14.2931C11.5293 14.5366 11.3354 14.8224 11.1913 15.1505C11.0521 15.4785 10.9825 15.8264 10.9825 16.1942C10.9825 16.567 11.0521 16.9174 11.1913 17.2455C11.3354 17.5735 11.5293 17.8618 11.7728 18.1103C12.0213 18.3539 12.3071 18.5477 12.6302 18.6919C12.9583 18.831 13.3087 18.9006 13.6815 18.9006Z" fill="var(--fill-0, white)"/>
<path id="Vector_4" d="M4.81707 20.199C3.77328 20.199 2.87363 19.8511 2.11812 19.1552V20.199H0.813383V9.24671H2.11812V13.2355C2.87363 12.5396 3.77328 12.1917 4.81707 12.1917C5.36381 12.1917 5.87825 12.2985 6.36039 12.5123C6.84749 12.721 7.27246 13.0093 7.6353 13.3771C8.00311 13.74 8.29389 14.1649 8.50761 14.652C8.72134 15.1342 8.82821 15.6486 8.82821 16.1953C8.82821 16.7471 8.72134 17.2665 8.50761 17.7536C8.29886 18.2357 8.01057 18.6582 7.64276 19.021C7.27992 19.3838 6.85494 19.6721 6.36784 19.8859C5.88074 20.0946 5.36381 20.199 4.81707 20.199ZM4.81707 18.9017C5.18488 18.9017 5.53281 18.8321 5.86086 18.693C6.18891 18.5488 6.47471 18.355 6.71826 18.1114C6.96678 17.8629 7.16311 17.5746 7.30725 17.2466C7.4514 16.9185 7.52347 16.5681 7.52347 16.1953C7.52347 15.8275 7.4514 15.4796 7.30725 15.1516C7.16311 14.8235 6.96678 14.5377 6.71826 14.2942C6.47471 14.0456 6.18891 13.8518 5.86086 13.7126C5.53281 13.5685 5.18488 13.4964 4.81707 13.4964C4.44428 13.4964 4.09387 13.5685 3.76582 13.7126C3.44274 13.8518 3.15694 14.0456 2.90842 14.2942C2.66487 14.5377 2.47102 14.8235 2.32688 15.1516C2.18771 15.4796 2.11812 15.8275 2.11812 16.1953C2.11812 16.5681 2.18771 16.9185 2.32688 17.2466C2.47102 17.5746 2.66487 17.8629 2.90842 18.1114C3.15694 18.355 3.44274 18.5488 3.76582 18.693C4.09387 18.8321 4.44428 18.9017 4.81707 18.9017Z" fill="var(--fill-0, white)"/>
<g id="Group 12066">
<path id="Vector_5" d="M40.0143 1.76698C39.6763 1.45881 39.2811 1.30473 38.8288 1.30473C38.5952 1.30473 38.374 1.34946 38.1653 1.43893C37.9615 1.52343 37.7801 1.64023 37.621 1.78935C37.462 1.93349 37.3327 2.10497 37.2333 2.30378C37.1389 2.5026 37.0842 2.71384 37.0693 2.93751L37.0469 8.00732H35.7422V0H37.0469V0.574082C37.5738 0.191361 38.1678 0 38.8288 0C39.6539 0 40.3597 0.285798 40.9462 0.857395C40.9512 0.862365 40.9562 0.86485 40.9611 0.86485L40.0143 1.76698Z" fill="var(--fill-0, white)"/>
<path id="Vector_6" d="M29.8965 8.00732C28.788 8.00732 27.8437 7.61714 27.0633 6.83679C26.2829 6.05644 25.8928 5.11206 25.8928 4.00366C25.8928 2.90023 26.2829 1.95834 27.0633 1.17799C27.8486 0.392662 28.793 0 29.8965 0C30.4432 0 30.9576 0.106864 31.4398 0.320591C31.9269 0.529348 32.3518 0.817631 32.7147 1.18544C33.0825 1.54828 33.3733 1.97325 33.587 2.46035C33.8007 2.94248 33.9076 3.45692 33.9076 4.00366C33.9076 4.10804 33.9026 4.2149 33.8927 4.32425C33.8827 4.4336 33.8678 4.54543 33.8479 4.65975H27.2721C27.3466 4.95301 27.4634 5.22389 27.6225 5.47241C27.7865 5.72093 27.9828 5.93715 28.2115 6.12105C28.4451 6.30496 28.7035 6.4491 28.9869 6.55348C29.2751 6.65785 29.5783 6.71004 29.8965 6.71004C30.1499 6.71004 30.3935 6.67525 30.6271 6.60567C30.8657 6.53608 31.0869 6.43916 31.2907 6.3149C31.4944 6.19064 31.6784 6.04401 31.8424 5.87502C32.0114 5.70105 32.153 5.51218 32.2673 5.30839H33.6914C33.5572 5.69608 33.3658 6.05644 33.1173 6.38945C32.8688 6.7175 32.578 7.0033 32.245 7.24685C31.9169 7.48543 31.5516 7.67182 31.149 7.80602C30.7514 7.94022 30.3338 8.00732 29.8965 8.00732ZM27.2721 3.35502H32.5208C32.4463 3.06674 32.3245 2.79834 32.1555 2.54982C31.9915 2.29633 31.7927 2.07763 31.5591 1.89372C31.3304 1.70982 31.0744 1.56568 30.7911 1.4613C30.5078 1.35692 30.2096 1.30473 29.8965 1.30473C29.5833 1.30473 29.2826 1.35692 28.9943 1.4613C28.711 1.56568 28.4525 1.70982 28.2189 1.89372C27.9903 2.07266 27.794 2.28887 27.6299 2.54236C27.4659 2.79088 27.3466 3.06177 27.2721 3.35502Z" fill="var(--fill-0, white)"/>
<path id="Vector_7" d="M20.5167 8.00732L18.1384 0H19.4953L21.4487 6.57584L23.4095 0H24.7664L22.3881 8.00732H20.5167Z" fill="var(--fill-0, white)"/>
<path id="Vector_8" d="M13.0176 8.00732C11.9092 8.00732 10.9648 7.61714 10.1844 6.83679C9.40406 6.05644 9.01388 5.11206 9.01388 4.00366C9.01388 2.90023 9.40406 1.95834 10.1844 1.17799C10.9697 0.392662 11.9141 0 13.0176 0C13.5643 0 14.0788 0.106864 14.5609 0.320591C15.048 0.529348 15.473 0.817631 15.8358 1.18544C16.2036 1.54828 16.4944 1.97325 16.7081 2.46035C16.9218 2.94248 17.0287 3.45692 17.0287 4.00366C17.0287 4.55537 16.9218 5.07478 16.7081 5.56188C16.4994 6.04401 16.2111 6.46649 15.8433 6.82933C15.4804 7.19217 15.0554 7.48046 14.5683 7.69418C14.0812 7.90294 13.5643 8.00732 13.0176 8.00732ZM13.0176 6.71004C13.3854 6.71004 13.7333 6.64046 14.0614 6.50129C14.3894 6.35715 14.6752 6.1633 14.9188 5.91975C15.1673 5.67123 15.3636 5.38295 15.5078 5.0549C15.6519 4.72685 15.724 4.37644 15.724 4.00366C15.724 3.63585 15.6519 3.28792 15.5078 2.95988C15.3636 2.63183 15.1673 2.34603 14.9188 2.10248C14.6752 1.85396 14.3894 1.66011 14.0614 1.52094C13.7333 1.3768 13.3854 1.30473 13.0176 1.30473C12.6448 1.30473 12.2944 1.3768 11.9663 1.52094C11.6432 1.66011 11.3574 1.85396 11.1089 2.10248C10.8654 2.34603 10.6715 2.63183 10.5274 2.95988C10.3882 3.28792 10.3186 3.63585 10.3186 4.00366C10.3186 4.37644 10.3882 4.72685 10.5274 5.0549C10.6715 5.38295 10.8654 5.67123 11.1089 5.91975C11.3574 6.1633 11.6432 6.35715 11.9663 6.50129C12.2944 6.64046 12.6448 6.71004 13.0176 6.71004Z" fill="var(--fill-0, white)"/>
<path id="Vector_9" d="M4.00368 8.00732C2.89528 8.00732 1.95089 7.61714 1.17054 6.83679C0.390179 6.05644 0 5.11206 0 4.00366C0 2.90023 0.390179 1.95834 1.17054 1.17799C1.95587 0.392662 2.90025 0 4.00368 0C4.44108 0 4.8586 0.0695856 5.25623 0.208757C5.65884 0.342958 6.02416 0.529348 6.35221 0.767927C6.68523 1.00651 6.976 1.2923 7.22452 1.62532C7.47305 1.95337 7.66441 2.31124 7.79861 2.69893H6.37458C6.26026 2.50011 6.1186 2.31621 5.94961 2.14721C5.78558 1.97325 5.60168 1.82414 5.39789 1.69988C5.1941 1.57562 4.97292 1.47869 4.73434 1.40911C4.50073 1.33952 4.25718 1.30473 4.00368 1.30473C3.6309 1.30473 3.28049 1.3768 2.95244 1.52094C2.62936 1.66011 2.34356 1.85396 2.09504 2.10248C1.85149 2.34603 1.65764 2.63183 1.5135 2.95988C1.37432 3.28792 1.30474 3.63585 1.30474 4.00366C1.30474 4.37644 1.37432 4.72685 1.5135 5.0549C1.65764 5.38295 1.85149 5.67123 2.09504 5.91975C2.34356 6.1633 2.62936 6.35715 2.95244 6.50129C3.28049 6.64046 3.6309 6.71004 4.00368 6.71004C4.25718 6.71004 4.50073 6.67525 4.73434 6.60567C4.97292 6.53608 5.1941 6.43916 5.39789 6.3149C5.60168 6.19064 5.78558 6.04401 5.94961 5.87502C6.1186 5.70105 6.26026 5.51218 6.37458 5.30839H7.79861C7.66441 5.69608 7.47305 6.05644 7.22452 6.38945C6.976 6.7175 6.68523 7.0033 6.35221 7.24685C6.02416 7.48543 5.65884 7.67182 5.25623 7.80602C4.8586 7.94022 4.44108 8.00732 4.00368 8.00732Z" fill="var(--fill-0, white)"/>
</g>
</g>
</svg>

<svg xmlns="http://www.w3.org/2000/svg" fill="none" overflow="visible" preserveAspectRatio="none" style="display:block" viewBox="0 0 40.961 20.199"><path fill="var(--fill-0, white)" d="M31.41 20.199q-1.663 0-2.833-1.17t-1.17-2.834a3.85 3.85 0 0 1 1.17-2.825q1.178-1.178 2.833-1.178 1.55 0 2.707 1.043V9.248h1.304V20.2h-1.304v-1.044A3.9 3.9 0 0 1 31.41 20.2m0-1.297a2.65 2.65 0 0 0 1.901-.79 2.8 2.8 0 0 0 .59-.865q.215-.492.216-1.052 0-.55-.217-1.043a2.7 2.7 0 0 0-.589-.858 2.6 2.6 0 0 0-.857-.581 2.6 2.6 0 0 0-1.044-.217q-.56 0-1.051.217-.485.209-.857.581-.366.366-.582.858-.21.492-.209 1.043 0 .56.209 1.052.216.492.582.864.372.366.857.582.492.21 1.051.209m-11.301 1.295V12.19h1.304v.574a2.96 2.96 0 0 1 1.782-.574q.612 0 1.156.23.544.232.954.634.418.403.671.94.255.529.284 1.133l-.008 5.07h-1.304v-5.07a1.7 1.7 0 0 0-.172-.634 1.83 1.83 0 0 0-.932-.872 1.7 1.7 0 0 0-.649-.127q-.35 0-.663.135a1.8 1.8 0 0 0-.544.35 1.7 1.7 0 0 0-.388.514q-.143.299-.164.634h-.023v5.07zm-6.427 0q-1.663 0-2.834-1.17-1.17-1.171-1.17-2.834a3.85 3.85 0 0 1 1.17-2.825q1.179-1.178 2.833-1.178a3.9 3.9 0 0 1 2.707 1.043v-1.043h1.305v8.007h-1.305v-1.044a3.9 3.9 0 0 1-2.707 1.044m0-1.297a2.65 2.65 0 0 0 1.9-.79q.374-.374.59-.866t.216-1.05q0-.552-.216-1.045a2.7 2.7 0 0 0-.59-.857 2.6 2.6 0 0 0-.857-.582 2.6 2.6 0 0 0-1.043-.216q-.56 0-1.052.216-.485.21-.857.582-.366.366-.582.857-.209.493-.209 1.044 0 .559.21 1.052.215.492.58.864.374.366.858.582.492.209 1.051.209m-8.863 1.298q-1.565 0-2.699-1.044V20.2H.813V9.247h1.305v3.989q1.133-1.044 2.7-1.044.819 0 1.542.32.73.313 1.275.865.552.545.873 1.275.32.723.32 1.543 0 .828-.32 1.559a4 4 0 0 1-.865 1.267 4.1 4.1 0 0 1-1.275.865 3.9 3.9 0 0 1-1.55.313m0-1.297a2.65 2.65 0 0 0 1.901-.79 2.8 2.8 0 0 0 .59-.865q.215-.492.215-1.052 0-.55-.216-1.043a2.7 2.7 0 0 0-.589-.858 2.6 2.6 0 0 0-.857-.581 2.6 2.6 0 0 0-1.044-.217q-.56 0-1.051.217-.485.209-.858.581-.365.366-.581.858-.21.492-.209 1.043 0 .56.209 1.052.216.492.581.864.374.366.858.582.492.21 1.051.209M40.014 1.767a1.7 1.7 0 0 0-1.185-.462q-.35 0-.664.134a1.8 1.8 0 0 0-.544.35 1.7 1.7 0 0 0-.388.515q-.141.298-.164.634l-.022 5.07h-1.305V0h1.305v.574A2.96 2.96 0 0 1 38.829 0q1.237 0 2.117.857.008.008.015.008zm-10.117 6.24q-1.663 0-2.834-1.17-1.17-1.17-1.17-2.833a3.85 3.85 0 0 1 1.17-2.826Q28.242 0 29.897 0q.819 0 1.543.32.73.315 1.275.865.55.545.872 1.275a3.77 3.77 0 0 1 .26 2.2h-6.575q.112.44.35.812.246.373.59.649.35.276.775.432a2.65 2.65 0 0 0 1.64.053 2.74 2.74 0 0 0 1.215-.731q.255-.261.425-.567h1.424a4 4 0 0 1-.574 1.081q-.372.493-.872.858a4 4 0 0 1-2.348.76m-2.625-4.652h5.249a2.6 2.6 0 0 0-.365-.805 2.7 2.7 0 0 0-.597-.656 2.7 2.7 0 0 0-.768-.433 2.6 2.6 0 0 0-.895-.156 2.6 2.6 0 0 0-.902.156 2.8 2.8 0 0 0-.775.433 2.6 2.6 0 0 0-.59.648q-.244.373-.357.813m-6.755 4.652L18.138 0h1.357l1.954 6.576L23.409 0h1.357l-2.378 8.007zm-7.499 0q-1.663 0-2.834-1.17-1.17-1.17-1.17-2.833a3.85 3.85 0 0 1 1.17-2.826Q11.362 0 13.018 0q.819 0 1.543.32.73.315 1.275.865.552.545.872 1.275.32.723.32 1.544 0 .826-.32 1.558a4 4 0 0 1-.865 1.267 4.1 4.1 0 0 1-1.275.865 3.9 3.9 0 0 1-1.55.313m0-1.297a2.65 2.65 0 0 0 1.9-.79q.374-.373.59-.865.216-.493.216-1.051 0-.552-.216-1.044a2.7 2.7 0 0 0-.59-.858 2.6 2.6 0 0 0-.857-.581 2.6 2.6 0 0 0-1.043-.216q-.56 0-1.052.216-.485.21-.857.581-.365.366-.582.858-.208.492-.208 1.044 0 .559.208 1.05.217.493.582.866.372.365.857.581.492.21 1.052.209M4.004 8.007q-1.663 0-2.833-1.17T0 4.004a3.85 3.85 0 0 1 1.17-2.826Q2.349 0 4.005 0q.656 0 1.252.209a4 4 0 0 1 1.096.559q.5.358.873.857.373.492.574 1.074H6.375a2.6 2.6 0 0 0-.425-.552 2.65 2.65 0 0 0-1.216-.738 2.6 2.6 0 0 0-.73-.104q-.56 0-1.052.216-.484.21-.857.581-.365.366-.582.858-.208.492-.208 1.044 0 .559.209 1.05.216.493.581.866.373.365.857.581.492.21 1.052.209.38 0 .73-.104a2.74 2.74 0 0 0 1.216-.731q.253-.261.425-.567h1.424a4 4 0 0 1-.574 1.081q-.373.493-.873.858a4 4 0 0 1-2.348.76"/></svg>
